X:1
T:Amour, ie sens tes doulx
T:Antoine Gardane
T:Source : Livre XX de 28 chansons nouvelles à 4 parties---Paris---P.Attaingnant---1546. Editor : André Vierendeels (06/07/18) Notes : Original clefs : G2, C2, C3, C4 Original note values have been halved Editorial accidentals above the staff Square brackets indicate ligatures
T:Amour, ie sens tes doulx
T:©
T:©
T:©
C:Antoine Gardane
Z:©
%%score [ 1 2 [ 3 4 ] ]
L:1/8
Q:1/4=120
M:2/2
K:F
V:1 treble nm="Soprano" snm="S"
V:2 treble nm="Alto" snm="A"
V:3 treble-8 nm="Tenor 1" snm="T 1"
V:4 treble-8 nm="Tenor 2" snm="T 2"
V:1
 A8 | B4 G4 | F6 F2 | G2 G2 A2 B2- | B2 A4 G2 | A4 z2 d2 | d2 d2 G2 B2 | c2 B2 c2 c2 | d4 z2 B2 | %9
w: A-|mour, ie|sens tes|doulx ef- fors re-|* mec- *|tre mon|cueur au feu où|le iu- geas al-|ler, où|
w: De-|si- rant|plus que|de- vant my sub-|* me- *|tre, me|con- ten- tant dung|si doulx feu brus-|ler, dung|
"^#" A2 G2 G2 F2 | G4 z4 :: d4 d2 d2 | d6 c2 | B2 B2 A2 c2- | cB B4 A2 | B4 z4 | z2 B2 B2 A2 | %17
w: le iu- geas al-|ler,|Te sup- ply-|ant te|voul- loir en al-||ler,|tel feu don-|
w: si doulx fer brus-|ler,|||||||
 G2 G2 F2 F2 | G3 A B2 B2 | A4 G2 A2- |"^#" AG G4 F2 | G8 :| %22
w: ner à cel- le|qui _ _ me|brus- * *||le.|
w: |||||
V:2
 F8 | G4 E4 | D6 D2 | D2 E2 F4- | F2 F2 D4 | D2 F2 F2 F2 | G4 z2 G2 | G2 G2 C2 G2 | A2 A2 G2 F2 | %9
w: A-|mour, ie|sens tes|doulx ef- fors|_ re- mec-|tre mon cueur au|feu mon|cueur au _ feu|où le iu- geas|
w: De-|si- tant|plus qie|de- vant my|_ sub- me-|tre, me con- ten-|tant me|con- ten- * tant|dung si doulx feu|
 FEDC D4 | D4 z4 :: B4 B2 B2 | A6 A2 | F2 G2 C2 F2- |"^b" F2 E2 F4 | z2 F2 F2 F2 | G2 F2 F3 E | %17
w: al- * * * *|ler,|Te sup- ply-|ant te|voul- loir en al-|* * ler,|tel feu don-|ner à cel- *|
w: brus- * * * *|ler,|||||||
 D2 C2 D4 | E4 D2 B,2 |"^b" F4 D2 E2- | E2 C2 D4 | D8 :| %22
w: * le qui|_ _ me|brus- * *||le.|
w: |||||
V:3
 d8 | d4 c4 | A6 A2 | B2 B2 c2 d2- | d2 c2 B4 | A2 d2 d2 d2 | G2 d2 d2 d2 | c2 d2 A2 e2 | %8
w: A-|mour, ie|sens tes|doulx ef- fors re|_ mec- *|tre mon cueur _|au feu où le|iu- geas al- ler,|
w: De-|si- rant|plus que|de- vant my sub-|* me- *|tre, me con- ten-|tant dung si doulx|feu brus- ler, dung|
 f2 f2 e2 d2- | dc B2 A4 | G4 z4 :: g4 g2 g2 | f6 e2 | d2 d2 f3 e | d2 cB c4 | B4 z4 | %16
w: où le iu- geas|_ _ _ al-|ler,|Te sup- ply-|ant te|voul- loir en _|_ _ _ al-|ler,|
w: si doulx feu brus-||ler,||||||
 z2 d2 d2 c2 | B2 G2 A2 F2 | c4 B2 d2- | d2 c2 B2 c2- | cBAG A4 | G8 :| %22
w: tel feu don-|ner à cel- le|qui me brus-|||le.|
w: ||||||
V:4
 D8 | G4 C4 | D6 D2 | G2 G2 F2 B2- | BA F2 G4 | D8 | z2 G2 G2 G2 | C2 G2 F2 E2 | D2 D2 G2 B2 | %9
w: A-|mour, ie|sens tes|doulx ef- fors _|_ _ re- mec-|tre|mon cueur au|feu où le iu-|geas, où le iu-|
w: De-|si- rant|plus que|de- vant my sub-|* * * me-|tre,|me con- ten-|tant dung si doulx|feu brus- ler, dung|
 F2 G2 D2 D2 | G4 z4 :: G4 G2 G2 | d6 A2 | B2 G2 F4 |"^b" G4 F4 | z2 B2 B2 A2 | G2 B2 F2 F2 | %17
w: * * geas al-|ler,|Te sup- ply-|ant te|voul- loir en|al- ler,|tel feu don-|ner à cel- le|
w: si doulx feu brus-|ler,|||||||
 G2 E2 D4 | C4 z2 G2 | F2 F2 G2 C2 |"^b" E4 D4 | G8 :| %22
w: qui me brus-|le, à|cel- le qui me|brus- *|le.|
w: |||||

